public/assets/standards/sci-ai/explore-feat-icon-4.svg

<svg width="50" height="50" viewBox="0 0 50 50" fill="none" xmlns="http://www.w3.org/2000/svg">
<path d="M18.15 3.94995V4.96995C18.15 5.92995 17.37 6.71995 16.4 6.71995H2.75C1.79 6.71995 1 7.49995 1 8.46995V35.93C1 36.8899 1.78 37.68 2.75 37.68H36.34C37.3 37.68 38.09 36.9 38.09 35.93V3.94995C38.09 2.98995 37.31 2.19995 36.34 2.19995H19.91C18.95 2.19995 18.16 2.97995 18.16 3.94995H18.15Z" fill="#006D68"/>
<path d="M29.0699 14.0801V15.1001C29.0699 16.0601 28.2899 16.8501 27.3199 16.8501H13.6599C12.6999 16.8501 11.9099 17.6301 11.9099 18.6001V46.0601C11.9099 47.0201 12.6899 47.8101 13.6599 47.8101H47.2499C48.2099 47.8101 48.9999 47.0301 48.9999 46.0601V14.0801C48.9999 13.1201 48.2199 12.3301 47.2499 12.3301H30.8199C29.8599 12.3301 29.0699 13.1101 29.0699 14.0801Z" fill="#A7C553"/>
</svg>

<svg xmlns="http://www.w3.org/2000/svg" width="50" height="50" fill="none" viewBox="0 0 50 50"><path fill="#006d68" d="M18.15 3.95v1.02c0 .96-.78 1.75-1.75 1.75H2.75C1.79 6.72 1 7.5 1 8.47v27.46c0 .96.78 1.75 1.75 1.75h33.59c.96 0 1.75-.78 1.75-1.75V3.95c0-.96-.78-1.75-1.75-1.75H19.91c-.96 0-1.75.78-1.75 1.75z"/><path fill="#a7c553" d="M29.07 14.08v1.02c0 .96-.78 1.75-1.75 1.75H13.66c-.96 0-1.75.78-1.75 1.75v27.46c0 .96.78 1.75 1.75 1.75h33.59c.96 0 1.75-.78 1.75-1.75V14.08c0-.96-.78-1.75-1.75-1.75H30.82c-.96 0-1.75.78-1.75 1.75"/></svg>
